X:1
T:A Nation Once Again
M:C
L:1/8
Q:80
C:arr. J.P. McGonigle
S:March
K:HP
{g}f2 | \
{g}A2{g}Bc{Gdc}d2{g}cd | \
{fg}f3e{Gdc}d3c |
{gBd}B2e2{Gdc}dc{g}Bc | \
{gef}e2d2{gdc}d4 | \
{g}A2{g}Bc{Gdc}d2{g}cd |
{fg}f3e{Gdc}d3c | \
{gBd}B2e2{Gdc}dc{g}Bc | \
{gBd}B2{e}A2{GAG}A4 |
{g}A2B2{GdG}c2{Gdc}d2 | \
{gef}e3A{GAG}A4 | \
{g}B2c2{Gdc}d2e2 |
{gfg}f4{GdG}fe{g}dc | \
B2{GdG}B2{gf}g3f | \
{gef}e2d2{gcd}c3B |
{g}Af3{gef}e3d | \
{gdc}d4{gdc}d2{e}A2|]
{g}f3e{Gdc}d3c |
{gBd}B4{GdGe}B2{g}B2 | \
{gf}g3f{gef}e3d | \
{gcd}c4{GdG}c2{e}B2|1
{g}A2{g}Bc{Gdc}d3c | \
{g}B{g}e3/2d/2{gcd}c2{g}cB | \
A2f2{gef}e3d |
{gdc}d4{gdc}d2{e}A2:|2
{g}A2{g}Bc{Gdc}d3c | \
{g}B{g}e3/2d/2{gcd}c2{g}de |
{g}f2g2{gef}e3d | \
{gdc}d4{gdc}d2|]
